assets/logo-m.svg

<svg width="101" height="60" viewBox="0 0 101 60" fill="none" xmlns="http://www.w3.org/2000/svg">
<mask id="mask0_103_250" style="mask-type:luminance" maskUnits="userSpaceOnUse" x="94" y="18" width="7" height="7">
<path d="M94.9092 18.966H100.146V24.6944H94.9092V18.966Z" fill="white"/>
</mask>
<g mask="url(#mask0_103_250)">
<mask id="mask1_103_250" style="mask-type:luminance" maskUnits="userSpaceOnUse" x="31" y="-8" width="81" height="88">
<path d="M31.9023 49.9591L59.2961 -7.90057L111.605 21.7369L84.2114 79.5966L31.9023 49.9591Z" fill="white"/>
</mask>
<g mask="url(#mask1_103_250)">
<mask id="mask2_103_250" style="mask-type:luminance" maskUnits="userSpaceOnUse" x="31" y="-8" width="81" height="88">
<path d="M31.9023 49.9591L59.2961 -7.90057L111.605 21.7369L84.2114 79.5966L31.9023 49.9591Z" fill="white"/>
</mask>
<g mask="url(#mask2_103_250)">
<path fill-rule="evenodd" clip-rule="evenodd" d="M96.2349 20.8866C95.8293 21.7406 96.1327 22.7923 96.9133 23.2361C97.694 23.678 98.6554 23.3424 99.0594 22.4865C99.465 21.6306 99.1599 20.5789 98.381 20.137C97.6003 19.695 96.6389 20.0307 96.2349 20.8866ZM96.5469 24.01C95.3758 23.3461 94.9207 21.7686 95.5275 20.4857C96.1361 19.2028 97.5764 18.6993 98.7474 19.3631C99.9168 20.027 100.374 21.6045 99.7668 22.8874C99.1582 24.1703 97.7179 24.6719 96.5469 24.01Z" fill="#A52424"/>
</g>
</g>
</g>
<mask id="mask3_103_250" style="mask-type:luminance" maskUnits="userSpaceOnUse" x="59" y="6" width="42" height="54">
<path d="M59.8906 6.07721H100.991V59.4225H59.8906V6.07721Z" fill="white"/>
</mask>
<g mask="url(#mask3_103_250)">
<mask id="mask4_103_250" style="mask-type:luminance" maskUnits="userSpaceOnUse" x="45" y="-3" width="65" height="71">
<path d="M45.4736 43.7716L67.3397 -2.41278L109.094 21.2443L87.2275 67.4287L45.4736 43.7716Z" fill="white"/>
</mask>
<g mask="url(#mask4_103_250)">
<mask id="mask5_103_250" style="mask-type:luminance" maskUnits="userSpaceOnUse" x="45" y="-3" width="65" height="71">
<path d="M45.4736 43.7716L67.3397 -2.41278L109.094 21.2443L87.2275 67.4287L45.4736 43.7716Z" fill="white"/>
</mask>
<g mask="url(#mask5_103_250)">
<path fill-rule="evenodd" clip-rule="evenodd" d="M60.0799 13.5194C59.9616 13.378 59.9711 13.1577 60.1017 13.0282C67.3917 5.75127 78.32 3.80887 87.5802 9.05409C91.4552 11.251 94.5614 14.4362 96.771 18.1841C96.8663 18.3449 96.8241 18.5607 96.6758 18.6649C96.5288 18.7691 96.3316 18.7229 96.2377 18.5622C94.0852 14.914 91.062 11.8121 87.2863 9.67328C78.271 4.56499 67.6285 6.4553 60.5289 13.5417C60.3983 13.6712 60.1983 13.6623 60.0799 13.5194ZM71.7946 58.3627C71.8259 58.1737 71.9919 58.0472 72.1647 58.0829C82.097 60.0566 92.4661 54.8441 97.3602 44.507C100.417 38.0502 100.749 30.8387 98.8119 24.4489C98.7575 24.2673 98.8473 24.0708 99.0133 24.0098C99.1806 23.9488 99.3602 24.047 99.4147 24.2286C101.404 30.7896 101.064 38.196 97.9235 44.8255C92.8974 55.4424 82.2494 60.7948 72.0491 58.7676C71.8776 58.7319 71.7633 58.5518 71.7946 58.3627Z" fill="#A52424"/>
</g>
</g>
</g>
<path d="M73.0099 44.6242C73.6491 44.682 74.9514 44.0704 75.4832 43.4606C75.5633 43.373 75.7491 43.2555 75.6161 43.11C75.4832 42.9366 75.3229 43.0243 75.2173 43.1399C74.7911 43.5464 74.3139 43.8093 73.8076 44.0424C72.5582 44.6521 71.8406 44.1282 71.8678 42.6159C71.8678 41.5978 72.1866 40.6393 72.5854 39.7088C73.3832 37.846 74.4468 36.1883 75.4559 34.5007C75.8019 33.891 76.1207 33.2794 76.3082 32.582C76.4139 32.2034 76.5468 31.7093 76.2809 31.4482C75.7218 30.8366 76.015 30.4301 76.4667 29.9938C76.5724 29.9061 76.6269 29.7308 76.6798 29.5574C76.7326 29.3821 76.7326 29.2087 76.5996 29.0913C76.3337 28.7426 75.9877 28.5673 75.5633 28.6549C75.057 28.7724 74.6854 29.0913 74.5525 29.673C74.4468 30.1392 74.5798 30.6334 74.9241 30.8944C75.2173 31.0977 75.2445 31.3308 75.19 31.6216C75.1371 32.1755 74.9514 32.6696 74.6854 33.1339C74.2593 33.891 73.8349 34.6462 73.4087 35.3734C72.6383 36.6824 71.9207 37.9915 71.4144 39.4179C71.0156 40.6393 70.857 41.8607 71.2286 43.1399C71.469 43.9548 72.2394 44.5943 73.0099 44.6242Z" fill="#A52424"/>
<path d="M66.1378 31.3412C65.7918 31.0205 65.4986 31.0205 65.1543 31.3692C65.0213 31.5146 64.8884 31.6601 64.7554 31.8055C63.1327 34.1905 61.8577 36.7227 61.5918 39.7473C61.4844 40.5323 61.5117 41.3173 61.6702 42.1024C61.8032 42.714 62.0435 43.3237 62.4151 43.8477C63.16 44.808 63.9833 44.9237 64.9412 44.2542C65.1014 44.1386 65.26 43.9633 65.4202 43.8179C66.7753 42.5685 67.9719 41.142 69.1958 39.7473C70.6838 38.0299 72.3066 36.5773 74.2736 35.5293C75.3901 34.9475 76.4537 34.3079 77.623 33.8418C77.7304 33.8138 77.8361 33.784 77.8088 33.6385C77.8088 33.5229 77.7032 33.4651 77.5975 33.4651C77.3844 33.4353 77.2242 33.5229 77.0657 33.6105C76.4537 33.8996 75.8418 34.1905 75.2571 34.5112C74.0878 35.1228 72.8639 35.6748 71.7475 36.4598C70.1264 37.5357 68.7424 38.9622 67.4401 40.4745C66.6952 41.2875 66.0304 42.19 65.1543 42.8296C64.648 43.2081 64.1708 43.5867 63.5316 43.6146C63.0526 43.6445 62.9196 43.527 62.8139 43.0328C62.681 42.4231 62.681 41.8115 62.7338 41.2017C62.9469 38.9324 63.7446 36.8663 64.8083 34.9177C65.2872 34.045 65.7918 33.26 66.2708 32.4171C66.5094 31.9808 66.4566 31.6321 66.1378 31.3412ZM67.36 29.9166C67.6003 30.0023 67.7588 29.8289 67.7333 29.566C67.7333 29.1297 67.2816 28.6933 66.8282 28.6355C66.5895 28.6075 66.4566 28.781 66.5367 29.0439C66.6696 29.4802 66.9884 29.7711 67.36 29.9166Z" fill="#A52424"/>
<path d="M52.9911 39.1128C53.044 39.7226 53.1241 40.3342 53.39 40.8861C54.2934 42.749 56.1019 43.1555 57.6173 42.4581C60.6752 41.0316 66.4178 35.5345 69.7144 35.0981C69.6871 34.9825 69.6871 34.9247 69.6616 34.8949C68.7582 33.7891 60.5951 39.9277 57.9104 41.3523C57.2184 41.7308 56.5263 42.0497 55.7286 42.0497C55.3298 42.0217 55.0656 41.8465 54.9053 41.4399C54.7451 41.0316 54.6667 40.5952 54.6667 40.1309C54.6394 39.083 54.8252 38.0947 55.1985 37.1064C55.49 36.2915 55.9417 35.5643 56.3406 34.8072C56.6337 34.1975 56.5809 33.9942 56.0218 33.7033C55.8616 33.6157 55.7031 33.4982 55.5428 33.5579C55.2513 33.6735 55.0911 33.4982 54.8781 33.3528C54.0803 32.8586 53.2826 32.743 52.4866 33.295C50.5707 34.604 49.6945 36.5824 49.7474 38.9953C49.7474 39.8102 50.5979 40.2764 51.29 39.9277C51.5559 39.7822 51.7945 39.5771 51.9803 39.3459C52.2735 39.055 52.565 38.7343 52.8837 38.3856C52.9911 38.6765 52.9638 38.9096 52.9911 39.1128ZM51.5013 38.7641C51.3156 38.9375 51.1025 39.083 50.811 39.3161C50.811 38.6765 50.9167 38.2103 51.0769 37.8038C51.5559 36.4649 52.2462 35.3312 53.257 34.4007C53.4428 34.2254 53.6815 34.1098 53.8945 33.9644C54.0275 33.8767 54.2133 33.8488 54.3207 34.052C54.4263 34.2254 54.5337 34.3709 54.4008 34.604C53.5485 36.0883 52.7252 37.6005 51.5013 38.7641Z" fill="#A52424"/>
<path d="M50.0481 31.5324C48.56 32.3752 47.1776 33.3635 45.9282 34.5849C44.2782 36.1848 42.8429 38.0178 41.3549 39.793C40.5827 40.7235 39.7594 41.6241 38.7486 42.2357C38.1895 42.6143 37.8981 42.439 37.8179 41.7696C37.7924 41.5663 37.7924 41.363 37.8179 41.1598C37.8708 40.7514 37.9509 40.3449 38.0566 39.9664C38.5356 38.2509 39.2276 36.6211 39.9981 35.0212C40.7157 33.481 41.4606 31.9389 42.1782 30.3968C42.4969 29.7292 42.7373 28.9721 42.8702 28.2449C43.056 27.3443 42.6844 26.8781 41.8321 26.8781C41.3549 26.9079 40.956 27.1391 40.5571 27.4021C39.3077 28.3027 38.2168 29.4663 37.1276 30.572C36.3026 31.4149 35.5049 32.3174 34.5486 33.0446C34.5742 32.172 34.76 31.3291 35.0259 30.5422C36.0094 27.5755 37.1276 24.6684 38.4026 21.8471C39.1748 20.0141 40.0509 18.2688 40.9287 16.5234C42.6571 13.0924 44.5185 9.71728 46.4856 6.45965C46.9645 5.67461 47.389 4.83177 47.7878 3.98706C47.9753 3.58056 47.8952 3.43511 47.4964 3.28967C47.0174 3.11438 46.6714 3.23186 46.3526 3.726C45.7151 4.74413 45.0759 5.73242 44.4657 6.72257C42.2583 10.3867 40.2111 14.1385 38.377 18.0077C36.8344 21.3232 35.3719 24.6684 34.1225 28.1293C33.5634 29.6416 33.1117 31.1837 33.0589 32.8115C33.006 33.7719 33.4577 34.2082 34.3083 34.1206C34.627 34.0907 34.8929 33.9453 35.1589 33.742C35.4248 33.481 35.6907 33.2479 35.931 32.9868C37.1804 31.7058 38.377 30.3688 39.6793 29.1754C40.2384 28.6812 40.7958 28.1573 41.4606 27.8664C41.5935 28.0715 41.5134 28.2449 41.4333 28.4202C41.3003 28.7969 41.1418 29.2052 40.9816 29.5838C40.3969 31.0382 39.5992 32.3454 38.9617 33.742C38.164 35.3997 37.3935 37.0295 36.9674 38.8327C36.7543 39.793 36.5412 40.7514 36.7816 41.7696C36.9674 42.5844 37.3662 42.9331 38.1367 42.9331C38.7486 42.963 39.2804 42.7 39.7321 42.2935C40.2912 41.8572 40.7958 41.363 41.2748 40.8391C42.4969 39.4722 43.7208 38.1334 44.9429 36.7386C46.6714 34.818 48.5071 33.0726 50.66 31.7636C50.7929 31.6778 50.9787 31.6181 50.9259 31.3869C50.4998 31.2993 50.4998 31.2993 50.0481 31.5324Z" fill="#A52424"/>
<path d="M4.91958 38.188C7.41844 41.2423 10.5292 42.9299 14.2792 43.0455C18.5065 43.1331 22.0162 41.3001 24.8338 37.8392C27.2798 34.7849 28.9809 31.2364 30.4434 27.5424C31.64 24.5179 32.5179 21.3479 33.5542 18.2357C34.8037 14.4243 36.1861 10.7023 38.1003 7.26941C38.3133 6.89274 38.5537 6.68762 38.9525 6.60185C40.5736 6.22331 42.169 5.6695 43.5514 4.59357C43.8701 4.36235 44.1105 4.30268 44.4821 4.42015C49.1883 5.87461 54.0003 6.71746 58.9196 6.74729C61.2855 6.77526 63.6258 6.68762 65.9389 6.04803C67.2139 5.69933 68.4633 5.20519 69.4213 4.12926C69.527 4.04162 69.74 3.98381 69.6344 3.78056C69.5542 3.57544 69.3412 3.54747 69.1554 3.63511C68.7838 3.75072 68.3577 3.83837 67.9861 4.07145C66.948 4.76885 65.8588 5.3208 64.6349 5.58372C62.9065 5.99023 61.1525 6.10584 59.3713 6.10584C55.3025 6.16551 51.2611 5.61169 47.2997 4.6234C46.3162 4.39032 45.3599 4.09942 44.3764 3.80853C44.4548 3.69292 44.4821 3.63511 44.5349 3.54747C45.3599 2.29626 44.8809 1.16253 43.4713 0.959274C42.302 0.783992 41.2912 1.27814 40.4133 2.0352C40.0145 2.3839 39.6957 2.44171 39.2713 2.23846C39.1912 2.20862 39.1111 2.20862 39.0582 2.18065C36.1332 1.25017 33.2082 0.522934 30.1775 0.377488C26.4292 0.202207 22.7866 0.841798 19.2241 2.0352C11.194 4.73901 5.31844 10.2082 1.57014 18.3811C0.0803708 21.6388 -0.398606 25.0698 0.34628 28.6482C1.06389 32.2843 2.68662 35.4245 4.91958 38.188ZM43.0196 1.65667C43.3912 1.51122 43.6042 1.71448 43.6843 2.06317C43.79 2.55732 43.6042 2.96569 43.3383 3.34422C43.2582 3.43 43.1798 3.45983 43.0724 3.40203C42.4878 3.22675 41.9031 3.02349 41.2656 2.82024C41.823 2.26643 42.3821 1.88976 43.0196 1.65667ZM40.6264 3.48967C40.7065 3.40203 40.7866 3.28455 40.9724 3.34422C41.5571 3.51764 42.169 3.72089 42.8594 3.92601C41.69 4.9721 40.3878 5.37861 39.0309 5.78697C39.5099 4.9721 40.0417 4.2169 40.6264 3.48967ZM2.84514 18.1182C6.99401 9.50891 13.4014 4.15723 22.069 1.97553C24.4076 1.39561 26.8008 1.01708 29.194 0.987244C31.5872 0.959273 33.9258 1.45342 36.2406 2.00537C37.3025 2.26643 38.3406 2.55732 39.4298 2.90788C38.9781 3.48967 38.5537 4.01178 38.1548 4.53576C37.9946 4.73901 37.7815 4.9721 37.6758 5.23316C37.2497 6.16551 36.5321 6.42656 35.6287 6.51421C33.3412 6.74729 31.0554 7.00835 28.7679 7.29924C25.2326 7.76355 21.8559 8.75371 18.8781 10.9932C15.5287 13.4938 13.2412 16.839 12.2576 21.1726C11.8861 22.7725 12.0718 24.3724 12.4707 25.9425C12.5508 26.1756 12.6565 26.3788 12.7366 26.6119C12.8167 26.8152 13.0025 26.9326 13.1883 26.8152C13.3486 26.7275 13.1883 26.5821 13.1611 26.4366C12.7622 24.1393 12.8696 21.8719 13.6673 19.6902C15.7673 14.0177 19.623 10.4692 24.9667 8.78168C27.3855 8.02647 29.8588 7.76355 32.3576 7.53233C33.5815 7.41485 34.8037 7.26941 36.0275 7.12396C36.1605 7.12396 36.2934 7.12396 36.4792 7.09599C36.2133 7.61997 35.9747 8.08428 35.7343 8.55046C34.2719 11.2543 33.3156 14.221 32.3048 17.1598C31.1883 20.4174 30.3378 23.8205 29.1139 27.0482C27.7315 30.6844 26.1361 34.1751 23.8503 37.2276C21.5372 40.3995 18.5321 42.2306 14.8366 42.4935C12.1775 42.667 9.75878 41.7943 7.71162 39.9333C3.8031 36.3549 1.46276 31.8181 1.11673 26.1756C0.958212 23.2965 1.62298 20.6206 2.84514 18.1182Z" fill="#A52424"/>
</svg>

<svg width="101" height="60" fill="none" xmlns="http://www.w3.org/2000/svg"><mask id="a" style="mask-type:luminance" maskUnits="userSpaceOnUse" x="94" y="18" width="7" height="7"><path d="M94.91 18.966h5.236v5.728h-5.237v-5.728Z" fill="#fff"/></mask><g mask="url(#a)"><mask id="b" style="mask-type:luminance" maskUnits="userSpaceOnUse" x="31" y="-8" width="81" height="88"><path d="M31.902 49.96 59.296-7.9l52.309 29.637-27.394 57.86-52.309-29.638Z" fill="#fff"/></mask><g mask="url(#b)"><mask id="c" style="mask-type:luminance" maskUnits="userSpaceOnUse" x="31" y="-8" width="81" height="88"><path d="M31.902 49.96 59.296-7.9l52.309 29.637-27.394 57.86-52.309-29.638Z" fill="#fff"/></mask><g mask="url(#c)"><path fill-rule="evenodd" clip-rule="evenodd" d="M96.235 20.887c-.406.854-.102 1.905.678 2.35.781.441 1.742.105 2.146-.75.406-.856.1-1.908-.678-2.35-.78-.442-1.742-.106-2.146.75Zm.312 3.123c-1.171-.664-1.626-2.241-1.02-3.524.61-1.283 2.05-1.787 3.22-1.123 1.17.664 1.627 2.242 1.02 3.524-.609 1.283-2.05 1.785-3.22 1.123Z" fill="#A52424"/></g></g></g><mask id="d" style="mask-type:luminance" maskUnits="userSpaceOnUse" x="59" y="6" width="42" height="54"><path d="M59.89 6.077h41.101v53.346h-41.1V6.077Z" fill="#fff"/></mask><g mask="url(#d)"><mask id="e" style="mask-type:luminance" maskUnits="userSpaceOnUse" x="45" y="-3" width="65" height="71"><path d="M45.474 43.772 67.34-2.413l41.754 23.657L87.228 67.43 45.474 43.772Z" fill="#fff"/></mask><g mask="url(#e)"><mask id="f" style="mask-type:luminance" maskUnits="userSpaceOnUse" x="45" y="-3" width="65" height="71"><path d="M45.474 43.772 67.34-2.413l41.754 23.657L87.228 67.43 45.474 43.772Z" fill="#fff"/></mask><g mask="url(#f)"><path fill-rule="evenodd" clip-rule="evenodd" d="M60.08 13.52a.37.37 0 0 1 .022-.492c7.29-7.277 18.218-9.22 27.478-3.974 3.875 2.197 6.981 5.382 9.191 9.13a.367.367 0 0 1-.095.48.3.3 0 0 1-.438-.102c-2.153-3.648-5.176-6.75-8.952-8.889-9.015-5.108-19.657-3.218-26.757 3.869-.13.13-.33.12-.45-.023Zm11.715 44.843c.03-.19.197-.316.37-.28 9.932 1.974 20.301-3.239 25.195-13.576 3.057-6.457 3.389-13.668 1.452-20.058-.055-.182.035-.378.201-.44.168-.06.347.038.402.22 1.989 6.56 1.649 13.967-1.492 20.596-5.026 10.617-15.674 15.97-25.874 13.943-.171-.036-.286-.216-.254-.405Z" fill="#A52424"/></g></g></g><path d="M73.01 44.624c.64.058 1.941-.554 2.473-1.163.08-.088.266-.206.133-.351-.133-.173-.293-.086-.399.03-.426.406-.903.67-1.41.902-1.249.61-1.966.086-1.94-1.426 0-1.018.32-1.977.718-2.907.798-1.863 1.862-3.52 2.87-5.208.347-.61.666-1.222.853-1.919.106-.379.239-.873-.027-1.134-.56-.611-.266-1.018.186-1.454.105-.088.16-.263.213-.437.053-.175.053-.348-.08-.466-.266-.348-.612-.524-1.037-.436-.506.117-.878.436-1.01 1.018-.106.466.027.96.371 1.221.293.204.32.437.266.728a3.719 3.719 0 0 1-.505 1.512c-.426.757-.85 1.512-1.276 2.24-.77 1.308-1.488 2.617-1.995 4.044-.398 1.221-.557 2.443-.185 3.722.24.815 1.01 1.454 1.78 1.484Z" fill="#A52424"/><path d="M66.138 31.341c-.346-.32-.64-.32-.984.028l-.399.436c-1.622 2.386-2.897 4.918-3.163 7.942-.108.785-.08 1.57.078 2.355a4.77 4.77 0 0 0 .745 1.746c.745.96 1.568 1.076 2.526.406.16-.115.319-.29.48-.436 1.354-1.25 2.55-2.676 3.775-4.07 1.488-1.718 3.11-3.17 5.078-4.219 1.116-.582 2.18-1.221 3.349-1.687.107-.028.213-.058.186-.203 0-.116-.106-.174-.212-.174-.213-.03-.373.058-.531.145-.612.29-1.224.58-1.809.901-1.17.612-2.393 1.164-3.51 1.949-1.62 1.076-3.005 2.502-4.307 4.014-.745.814-1.41 1.716-2.286 2.356-.506.378-.983.757-1.622.785-.48.03-.612-.088-.718-.582-.133-.61-.133-1.221-.08-1.831.213-2.27 1.01-4.336 2.074-6.284.48-.873.984-1.658 1.463-2.5.238-.437.186-.786-.133-1.077Zm1.222-1.424c.24.085.399-.088.373-.351 0-.436-.451-.873-.905-.93-.239-.028-.371.145-.291.408.133.436.451.727.823.873Z" fill="#A52424"/><path d="M52.991 39.113c.053.61.133 1.221.399 1.773.903 1.863 2.712 2.27 4.227 1.572 3.058-1.426 8.8-6.923 12.097-7.36-.027-.115-.027-.173-.052-.203-.904-1.106-9.067 5.033-11.752 6.457-.692.379-1.384.698-2.181.698-.4-.028-.663-.203-.824-.61a3.55 3.55 0 0 1-.238-1.31 7.84 7.84 0 0 1 .532-3.024c.291-.815.743-1.542 1.142-2.299.293-.61.24-.813-.32-1.104-.16-.087-.318-.205-.478-.145-.292.115-.452-.06-.665-.205-.798-.494-1.595-.61-2.391-.058-1.916 1.309-2.793 3.287-2.74 5.7 0 .815.85 1.281 1.543.933a2.34 2.34 0 0 0 .69-.582c.294-.291.585-.612.904-.96.107.29.08.524.107.727Zm-1.49-.349c-.185.173-.398.319-.69.552 0-.64.106-1.106.266-1.512.479-1.34 1.17-2.473 2.18-3.403.186-.176.425-.291.638-.437.133-.087.318-.115.426.088.105.173.213.319.08.552-.853 1.484-1.676 2.996-2.9 4.16Zm-1.453-7.232c-1.488.843-2.87 1.832-4.12 3.053-1.65 1.6-3.085 3.433-4.573 5.208-.772.93-1.596 1.831-2.606 2.443-.56.378-.85.203-.931-.466a2.44 2.44 0 0 1 0-.61c.053-.409.133-.815.239-1.194.479-1.715 1.17-3.345 1.941-4.945.718-1.54 1.463-3.082 2.18-4.624.319-.668.56-1.425.692-2.152.186-.9-.186-1.367-1.038-1.367-.477.03-.876.261-1.275.524-1.25.9-2.34 2.064-3.43 3.17-.824.843-1.622 1.745-2.578 2.473.025-.873.211-1.716.477-2.503a89.473 89.473 0 0 1 3.377-8.695c.772-1.833 1.648-3.578 2.526-5.324A150.526 150.526 0 0 1 46.486 6.46c.479-.785.903-1.628 1.302-2.473.187-.406.107-.552-.292-.697-.479-.176-.825-.058-1.143.436-.638 1.018-1.277 2.006-1.887 2.997-2.208 3.664-4.255 7.416-6.089 11.285-1.543 3.315-3.005 6.66-4.255 10.121-.559 1.513-1.01 3.055-1.063 4.683-.053.96.399 1.396 1.25 1.309.318-.03.584-.176.85-.379.266-.261.532-.494.772-.755 1.25-1.281 2.446-2.618 3.748-3.812.56-.494 1.117-1.018 1.782-1.309.133.206.052.379-.028.554-.133.377-.291.785-.451 1.164-.585 1.454-1.383 2.761-2.02 4.158-.798 1.658-1.569 3.288-1.995 5.09-.213.961-.426 1.92-.185 2.938.185.814.584 1.163 1.355 1.163.612.03 1.143-.233 1.595-.64a12.55 12.55 0 0 0 1.543-1.454c1.222-1.367 2.446-2.706 3.668-4.1 1.728-1.921 3.564-3.666 5.717-4.975.133-.086.319-.146.266-.377-.426-.088-.426-.088-.878.145Z" fill="#A52424"/><path d="M4.92 38.188c2.498 3.054 5.61 4.742 9.36 4.857 4.226.088 7.736-1.745 10.554-5.206 2.446-3.054 4.147-6.603 5.61-10.297 1.196-3.024 2.074-6.194 3.11-9.306 1.25-3.812 2.632-7.534 4.546-10.967.213-.376.454-.581.852-.667 1.622-.379 3.217-.933 4.6-2.008.318-.232.559-.291.93-.174C49.188 5.875 54 6.717 58.92 6.747c2.365.028 4.706-.06 7.019-.699 1.275-.349 2.524-.843 3.482-1.919.106-.087.319-.145.213-.348-.08-.206-.293-.234-.479-.146-.371.116-.797.203-1.169.436-1.038.698-2.127 1.25-3.351 1.513-1.729.406-3.483.522-5.264.522-4.069.06-8.11-.494-12.071-1.483-.984-.233-1.94-.524-2.924-.814.079-.116.106-.174.159-.262.825-1.25.346-2.384-1.064-2.588-1.169-.175-2.18.32-3.058 1.076-.398.349-.717.407-1.142.203-.08-.03-.16-.03-.213-.057-2.925-.93-5.85-1.658-8.88-1.804-3.749-.175-7.391.465-10.954 1.658C11.194 4.74 5.318 10.208 1.57 18.381.08 21.64-.399 25.07.346 28.648c.718 3.636 2.34 6.777 4.574 9.54Zm38.1-36.531c.371-.146.584.057.664.406.106.494-.08.903-.346 1.281-.08.086-.158.116-.266.058-.584-.175-1.169-.379-1.806-.582.557-.554 1.116-.93 1.754-1.163ZM40.626 3.49c.08-.088.16-.205.346-.146.585.174 1.197.377 1.887.582-1.169 1.046-2.471 1.453-3.828 1.861.479-.815 1.01-1.57 1.595-2.297ZM2.846 18.118C6.993 9.508 13.4 4.158 22.068 1.976c2.339-.58 4.732-.959 7.125-.989 2.393-.028 4.732.466 7.047 1.018 1.062.261 2.1.552 3.189.903-.452.582-.876 1.104-1.275 1.628-.16.203-.373.436-.48.697-.425.933-1.143 1.194-2.046 1.281-2.288.233-4.574.494-6.861.785-3.535.465-6.912 1.455-9.89 3.694-3.35 2.5-5.637 5.846-6.62 10.18-.372 1.6-.186 3.2.213 4.77.08.233.185.436.266.669.08.203.265.32.451.203.16-.088 0-.233-.027-.378-.399-2.298-.291-4.565.506-6.747 2.1-5.672 5.956-9.22 11.3-10.908 2.419-.756 4.892-1.018 7.39-1.25 1.224-.117 2.447-.263 3.67-.408.133 0 .266 0 .452-.028-.266.524-.504.988-.745 1.454-1.462 2.704-2.418 5.671-3.43 8.61-1.116 3.257-1.966 6.66-3.19 9.888-1.383 3.636-2.978 7.127-5.264 10.18-2.313 3.172-5.318 5.003-9.013 5.265-2.66.174-5.078-.699-7.125-2.56-3.909-3.578-6.25-8.115-6.595-13.757-.159-2.88.506-5.555 1.728-8.058Z" fill="#A52424"/></svg>
